X: 150104
T: LITTLE BEAUTY WALTZ
R: Waltz.
%R: waltz
B: James Kerr "Merry Melodies" v.1 p.50 s.1 #4
Z: 2016 John Chambers <jc:trillian.mit.edu>
M: 3/4
L: 1/4
K: G
uD |\
(G2B) | dBg | (f2e) | (c2A) |\
GFG | DGB | d3 | A2uD |\
(G2B) | dBg | (f2e) | (c2A) |\
GAG | Fed |[1 G3- | G2 :|[2 G3- | G |]
|: (AG) |\
(F2A) | ced | B3- | Bdg |\
(f2a) | efd | g3- | g2ud |\
bza | gfe | dgg | Aee |\
ded | cAd |[1 G3- | G :|[2 G3- | G2 |]

%%sep 1 1 500
%%sep 1 1 500

